X:105
T:Clawdd Madog
M:4/4
L:1/4
Q:80
C:D. Christmas Williams 1871-1926
R:Hymn
K:G
G | F E D G | A>B A F | B G F F | F3 G | F E D
G | A>B A B | A D E/F/ E | D3 G/A/ | B B2 G/A/ | B
B2 G/A/ | B d B A/G/ | A3 F/G/ | A A B G | c c2 A
| G/F/ G/c/ B A | G3 ||
